X:1
T:Cumbernauld House
T:Where winding Forth adorns the vale
S:SMM no. 142
Z:Jack Campin scots-l 2003-1-21
M:C
L:1/8
K:A %Transposed from F
A>B \
| "A"(c>B) (c>e) {d}c2 B>A |  "D"F>E FA  "E"B2 ce | "D"f2    (af)  "A"(e<c) (B>A) | "D"F2 "E7"A>B "A"A3B |
| "A"c>B c>e "F#m"{d}c2 BA | "Bm"F>E F>A "E"B2 ce | "D"(f>e) (f<a) "A"(e<c) (B>A) | "D"F2 "E7"A>B "A"A2 |]
c>B \
| "A"A>B   c>d      e3f            | "A"(e<c) BA    e2 a>g | "D"f>g    a>b "A/c#"{a}g2 fe | "F#m"c2 f>g "D"f3"(E7)"g |
| "A"(ag) (fe) "F#m"c2 (f3/g//a//) | "A"(e<c) BA "E"B2 ce  | "D"(f<e) (cf) "A"(e<c) (B>A) |  "D"F2 "E7"A>B "A"A2 |]
